public/images/icons/chakra/manipura.svg

<svg xmlns="http://www.w3.org/2000/svg" width="48" height="48" viewBox="0 0 48 48"><g fill="none" stroke="gold" stroke-width="2"><circle cx="24" cy="24" r="6"/><path d="M24 18c-1.5-3-1.5-8 0-12 1.5 4 1.5 9 0 12Zm3.7.5c.8-3.4 3.6-7.5 6.3-9.5-.8 3.6-3.5 7.3-6.3 9.5Zm2.8 2.5c2.8-2.2 7.3-3.5 10.5-3-2 3-6 5-10.5 3Zm.5 3.8c3.2-.8 7.5 0 10.2 2.2-3.2 1.5-7.4 1-10.2-2.2Zm-2 3.4c2.2 2.6 3 6.8 2 10.3-2.2-3-3-7-2-10.3ZM24 30c1.5 3 1.5 8 0 12-1.5-4-1.5-9 0-12Zm-5-1.8c-1 3.3.2 7.3-2 10.3-1-3.5-.2-7.7 2-10.3Zm-2-3.4C14.2 28 10 28.5 6.8 27c2.7-2.2 7-3 10.2-2.2Zm.5-3.8C13 23 9 21 7 18c3.2-.5 7.7.8 10.5 3Zm2.8-2.5c-2.8-2.2-5.5-5.9-6.3-9.5 2.7 2 5.5 6.1 6.3 9.5Z"/></g></svg>

<svg xmlns="http://www.w3.org/2000/svg" viewBox="0 0 48 48" width="48" height="48">
  <g fill="none" stroke="#FFD700" stroke-width="2">
    <!-- Central circle -->
    <circle cx="24" cy="24" r="6"/>
    <!-- 10-petal lotus (Solar Plexus) - petals at 36 degree intervals -->
    <!-- Each petal radiates outward from center, using elliptical leaf shapes -->
    <path d="M24,18 C22.5,15 22.5,10 24,6 C25.5,10 25.5,15 24,18Z"/>
    <path d="M27.7,18.5 C28.5,15.1 31.3,11 34,9 C33.2,12.6 30.5,16.3 27.7,18.5Z"/>
    <path d="M30.5,21 C33.3,18.8 37.8,17.5 41,18 C39,21 35,23 30.5,21Z"/>
    <path d="M31,24.8 C34.2,24 38.5,24.8 41.2,27 C38,28.5 33.8,28 31,24.8Z"/>
    <path d="M29,28.2 C31.2,30.8 32,35 31,38.5 C28.8,35.5 28,31.5 29,28.2Z"/>
    <path d="M24,30 C25.5,33 25.5,38 24,42 C22.5,38 22.5,33 24,30Z"/>
    <path d="M19,28.2 C18,31.5 19.2,35.5 17,38.5 C16,35 16.8,30.8 19,28.2Z"/>
    <path d="M17,24.8 C14.2,28 10,28.5 6.8,27 C9.5,24.8 13.8,24 17,24.8Z"/>
    <path d="M17.5,21 C13,23 9,21 7,18 C10.2,17.5 14.7,18.8 17.5,21Z"/>
    <path d="M20.3,18.5 C17.5,16.3 14.8,12.6 14,9 C16.7,11 19.5,15.1 20.3,18.5Z"/>
  </g>
</svg>
